Catalina-light/actions/16/filmgrain.svg

<svg width="16" height="16" viewBox="0 0 16 16" xmlns="http://www.w3.org/2000/svg">
<defs>
<style id="current-color-scheme" type="text/css">.ColorScheme-Text { color:#5c616c; } .ColorScheme-Highlight { color:#5294e2; }</style>
</defs>
<path class="ColorScheme-Text" d="m1 1v14h14v-14h-14zm3 1h8v5h-8v-5zm-2 1h1v1h-1v-1zm11 0h1v1h-1v-1zm-11 3h1v1h-1v-1zm11 0h1v1h-1v-1zm-11 3h1v1h-1v-1zm2 0h8v5h-8v-5zm9 0h1v1h-1v-1zm-11 3h1v1h-1v-1zm11 0h1v1h-1v-1z" fill="#363636"/>
</svg>

<svg xmlns="http://www.w3.org/2000/svg" width="16" height="16" viewBox="0 0 16 16">
 <defs>
  <style id="current-color-scheme" type="text/css">
   .ColorScheme-Text { color:#5c616c; } .ColorScheme-Highlight { color:#5294e2; }
  </style>
 </defs>
 <path style="fill:currentColor" class="ColorScheme-Text" d="M 1 1 L 1 15 L 15 15 L 15 1 L 1 1 z M 4 2 L 12 2 L 12 7 L 4 7 L 4 2 z M 2 3 L 3 3 L 3 4 L 2 4 L 2 3 z M 13 3 L 14 3 L 14 4 L 13 4 L 13 3 z M 2 6 L 3 6 L 3 7 L 2 7 L 2 6 z M 13 6 L 14 6 L 14 7 L 13 7 L 13 6 z M 2 9 L 3 9 L 3 10 L 2 10 L 2 9 z M 4 9 L 12 9 L 12 14 L 4 14 L 4 9 z M 13 9 L 14 9 L 14 10 L 13 10 L 13 9 z M 2 12 L 3 12 L 3 13 L 2 13 L 2 12 z M 13 12 L 14 12 L 14 13 L 13 13 L 13 12 z"/>
</svg>
